X: 493
T: A' Chiad Cheum
R: barndance
M: 4/4
K: Fmajor
[M:2/2]ABAG F2 c2|c2 AF G2FG|ABAG FGFD|CA, FC D4|
ABAG F2 c2-|c2 AF G2FG|ABAG FGFD|CA, FC D4||
DB,DF ECEG|FC AF G2FE|DB,DF ECEG|FCA,G, F,4|
DB,DF ECEG|FC AF G2FE|DB,DF ECEG|[M:3/2] FCAF G6 FE||
[M:2/2] "Bridge" DCB,A, G,2F,G,|A,2 F,2 F,2 FE|DCB,A, G,2F,G,|A,2 C2 D3 F|
DCB,A, G,2F,G,|A,CA,G, F,2 FE|DCB,A, G,2F,G,|A,2 C2 D4-|D8||

